X:280
%%etbk:tnset id:85,pos:3,rep:3x,ant:
%%etbk:wsite http://www.thesession.org/tunes/display/1895
%%etbk:pldat 2015-08-16T14:55,2015-07-11T13:08,2014-12-09T17:32,2014-09-26T18:04,2014-04-06T15:47,2014-02-04T18:05,2013-11-21T18:22,2013-11-19T16:03,2013-04-30T15:55
T: Maloney's Wife
Z: Piano Box Version by Martin Fleischmann
H: Created 2013-02-19 /  Last Modified 2013-02-19
M: 6/8
L: 1/8
R: jig
K: Dmaj
!4!AG |: "D"!2!FF!4!A AFA | !4!AFA !4!A!2!F!1!D | "G"!3!G!2!G!3!G FGA | "A"!5!B!3!G!1!E E!4!AG |
"D"!2!FFA AFA | !4!A!2!F!1!A !4!d2!1!A | "A"!2!Bcd !5!edB |1 "D"!1!A!2!F!1!D D!4!AG:|2 "D"!1!A!2!F!1!D D!3!cd:|
|: "A"!5!e!2!c!1!A ABA | !5!ecA !1!A!3!G!2!F | "G"!3!GGG FGA | "A"!5!B!3!G!1!E E!3!cd |
 !5!e!3!c!1!A ABA | !5!ecA "D"!4!d2!1!A | "A"!2!Bcd !5!edB |1 "D"!1!A!2!F!1!D D!3!cd:|2 "D"!1!A!2!F!1!D D2!2!f|
|: "G"!3!ggg !2!faf | "D"!3!gf!1!e !2!d!1!ef | "G"!3!gbg fga | "A"!5!b!3!g!1!e e2f |
"G"!3!ggg !2!faf | "D"!3!gf!1!e !2!d2!1!A | "A"!2!Bcd !5!edB |1 "D"!1!A!2!F!1!D D2!2!f:|2 "D"!1!A!2!F!1!D D!4!AG:|


